X: 35883
T: Sandy Broon's
R: jig
M: 6/8
K: Dmajor
|:A2 a fed|efe dcB|AAA d2 e|fed efa|
A2 a fed|efe def|gfe fed|1 efe dcB:|2 efe dBd||
|:efe def|edB AAA|eAA fAg-|gfe fed|
efe def|edB def|gfe fed|1 efe dBd:|2 efe dcB||

